X:95
T:Absent Friends
O:england
M:3/4
L:1/8
Q:80
C:Composed by Gavin Atkin
S:Copyright Gavin Atkin 1997
R:slow air
N:Slow air dedicated to Nigel Chippendale, John  Gasson and Dave Roberts
K:G
"D7" (3d/2e/2f/2 |: "Em" gf "C" .e2 "Am" ed |
"C" e/2f/2g "G" .B3 B |"G" dB"Cm"AG "Bm" A2 |
"D" Bd"C"ed "D7"(3d/2e/2f/2 | "Em" gf "C" .e2 "Am" ed |
"C" e/2f/2g "G" .B3 B | "G" dB "Cm" AG "Bm" d2 |
"Am" BA "G" G2 "D7" d/2c/2 |"G" BAG "Bm" ABd |
"C" eg4 "D7" f/2e/2 |"G"dBAG"D7"AB|"D"A4 "D7"d/2c/2|
"G" BAG "Bm" ABd | "C" eg3 "D" (3 aba |
"C" ge"G"dB "D7"A2 | "C" .G G "G"G2 "D7"(3d/2e/2f/2 :|


